svg/business/currency_shekel_2_line.svg

<?xml version="1.0" encoding="UTF-8"?>
<svg width="24px" height="24px" viewBox="0 0 24 24" version="1.1" xmlns="http://www.w3.org/2000/svg" xmlns:xlink="http://www.w3.org/1999/xlink">
    <title>currency_shekel_2_line</title>
    <g id="页面-1" stroke="none" stroke-width="1" fill="none" fill-rule="evenodd">
        <g id="Business" transform="translate(-576.000000, -288.000000)" fill-rule="nonzero">
            <g id="currency_shekel_2_line" transform="translate(576.000000, 288.000000)">
                <path d="M24,0 L24,24 L0,24 L0,0 L24,0 Z M12.5934901,23.257841 L12.5819402,23.2595131 L12.5108777,23.2950439 L12.4918791,23.2987469 L12.4918791,23.2987469 L12.4767152,23.2950439 L12.4056548,23.2595131 C12.3958229,23.2563662 12.3870493,23.2590235 12.3821421,23.2649074 L12.3780323,23.275831 L12.360941,23.7031097 L12.3658947,23.7234994 L12.3769048,23.7357139 L12.4804777,23.8096931 L12.4953491,23.8136134 L12.4953491,23.8136134 L12.5071152,23.8096931 L12.6106902,23.7357139 L12.6232938,23.7196733 L12.6232938,23.7196733 L12.6266527,23.7031097 L12.609561,23.275831 C12.6075724,23.2657013 12.6010112,23.2592993 12.5934901,23.257841 L12.5934901,23.257841 Z M12.8583906,23.1452862 L12.8445485,23.1473072 L12.6598443,23.2396597 L12.6498822,23.2499052 L12.6498822,23.2499052 L12.6471943,23.2611114 L12.6650943,23.6906389 L12.6699349,23.7034178 L12.6699349,23.7034178 L12.678386,23.7104931 L12.8793402,23.8032389 C12.8914285,23.8068999 12.9022333,23.8029875 12.9078286,23.7952264 L12.9118235,23.7811639 L12.8776777,23.1665331 C12.8752882,23.1545897 12.8674102,23.1470016 12.8583906,23.1452862 L12.8583906,23.1452862 Z M12.1430473,23.1473072 C12.1332178,23.1423925 12.1221763,23.1452606 12.1156365,23.1525954 L12.1099173,23.1665331 L12.0757714,23.7811639 C12.0751323,23.7926639 12.0828099,23.8018602 12.0926481,23.8045676 L12.108256,23.8032389 L12.3092106,23.7104931 L12.3186497,23.7024347 L12.3186497,23.7024347 L12.3225043,23.6906389 L12.340401,23.2611114 L12.337245,23.2485176 L12.337245,23.2485176 L12.3277531,23.2396597 L12.1430473,23.1473072 Z" id="MingCute" fill-rule="nonzero"></path>
                <path d="M10,4 C12.6887316,4 14.8818169,6.12231026 14.9953804,8.78311066 L15,9 L15,15 C15,15.5523 14.5523,16 14,16 C13.48715,16 13.0644908,15.613973 13.0067275,15.1166239 L13,15 L13,9 C13,7.40232321 11.7511226,6.09633941 10.1762773,6.00509271 L10,6 L7,6 L7,19 C7,19.5523 6.55228,20 6,20 C5.48716857,20 5.06449347,19.613973 5.0067278,19.1166239 L5,19 L5,5 C5,4.48716857 5.38604429,4.06449347 5.88337975,4.0067278 L6,4 L10,4 Z M18,4 C18.51285,4 18.9355092,4.38603566 18.9932725,4.8833779 L19,5 L19,19 C19,19.51285 18.613973,19.9355092 18.1166239,19.9932725 L18,20 L14,20 C11.3112684,20 9.1181831,17.8776708 9.00461956,15.2168878 L9,15 L9,9 C9,8.44771 9.44772,8 10,8 C10.51285,8 10.9355092,8.38603566 10.9932725,8.8833779 L11,9 L11,15 C11,16.597725 12.2488774,17.903664 13.8237227,17.9949075 L14,18 L17,18 L17,5 C17,4.44771 17.4477,4 18,4 Z" id="形状" fill="#09244B"></path>
            </g>
        </g>
    </g>
</svg>

<svg xmlns="http://www.w3.org/2000/svg" width="24" height="24"><g fill="none" fill-rule="nonzero"><path d="M24 0v24H0V0zM12.593 23.258l-.011.002-.071.035-.02.004-.014-.004-.071-.035c-.01-.004-.019-.001-.024.005l-.004.01-.017.428.005.02.01.013.104.074.015.004.012-.004.104-.074.012-.016.004-.017-.017-.427c-.002-.01-.009-.017-.017-.018m.265-.113-.013.002-.185.093-.01.01-.003.011.018.43.005.012.008.007.201.093c.012.004.023 0 .029-.008l.004-.014-.034-.614c-.003-.012-.01-.02-.02-.022m-.715.002a.023.023 0 0 0-.027.006l-.006.014-.034.614c0 .012.007.02.017.024l.015-.002.201-.093.01-.008.004-.011.017-.43-.003-.012-.01-.01z"/><path fill="#09244B" d="M10 4a5 5 0 0 1 4.995 4.783L15 9v6a1 1 0 0 1-1.993.117L13 15V9a3 3 0 0 0-2.824-2.995L10 6H7v13a1 1 0 0 1-1.993.117L5 19V5a1 1 0 0 1 .883-.993L6 4zm8 0a1 1 0 0 1 .993.883L19 5v14a1 1 0 0 1-.883.993L18 20h-4a5 5 0 0 1-4.995-4.783L9 15V9a1 1 0 0 1 1.993-.117L11 9v6a3 3 0 0 0 2.824 2.995L14 18h3V5a1 1 0 0 1 1-1"/></g></svg>
